X: 16
T:My Love she's But a Lassie Yet
R:march
C:Trad
M:2/4
L:1/8
K:D
d/2c/2|:dD FA|dD Dd/2c/2|dD FA|eE Ed/2c/2|
dD FA|Bg fe| d/2c/2B/2A/2 B/2c/2d/2e/2|fd d:|
f/g/|a>f g>e|fd df/2g/2|af ga|be ef/2g/2|
af ge|fd ed| d/2c/2B/2A/2 B/2c/2d/2e/2|fd dz:|
